svg/logo.svg

<?xml version="1.0" encoding="UTF-8" standalone="no"?>
<!-- Created with Inkscape (http://www.inkscape.org/) -->

<svg
   xmlns:dc="http://purl.org/dc/elements/1.1/"
   xmlns:cc="http://creativecommons.org/ns#"
   xmlns:rdf="http://www.w3.org/1999/02/22-rdf-syntax-ns#"
   xmlns:svg="http://www.w3.org/2000/svg"
   xmlns="http://www.w3.org/2000/svg"
   xmlns:sodipodi="http://sodipodi.sourceforge.net/DTD/sodipodi-0.dtd"
   xmlns:inkscape="http://www.inkscape.org/namespaces/inkscape"
   width="744.09448819"
   height="1052.3622047"
   id="svg2"
   version="1.1"
   inkscape:version="0.47 r22583"
   sodipodi:docname="logo.svg">
  <defs
     id="defs4">
    <inkscape:perspective
       sodipodi:type="inkscape:persp3d"
       inkscape:vp_x="0 : 526.18109 : 1"
       inkscape:vp_y="0 : 1000 : 0"
       inkscape:vp_z="744.09448 : 526.18109 : 1"
       inkscape:persp3d-origin="372.04724 : 350.78739 : 1"
       id="perspective10" />
    <inkscape:perspective
       id="perspective2884"
       inkscape:persp3d-origin="0.5 : 0.33333333 : 1"
       inkscape:vp_z="1 : 0.5 : 1"
       inkscape:vp_y="0 : 1000 : 0"
       inkscape:vp_x="0 : 0.5 : 1"
       sodipodi:type="inkscape:persp3d" />
    <inkscape:perspective
       id="perspective2983"
       inkscape:persp3d-origin="0.5 : 0.33333333 : 1"
       inkscape:vp_z="1 : 0.5 : 1"
       inkscape:vp_y="0 : 1000 : 0"
       inkscape:vp_x="0 : 0.5 : 1"
       sodipodi:type="inkscape:persp3d" />
    <inkscape:perspective
       id="perspective3788"
       inkscape:persp3d-origin="0.5 : 0.33333333 : 1"
       inkscape:vp_z="1 : 0.5 : 1"
       inkscape:vp_y="0 : 1000 : 0"
       inkscape:vp_x="0 : 0.5 : 1"
       sodipodi:type="inkscape:persp3d" />
    <inkscape:perspective
       id="perspective3864"
       inkscape:persp3d-origin="0.5 : 0.33333333 : 1"
       inkscape:vp_z="1 : 0.5 : 1"
       inkscape:vp_y="0 : 1000 : 0"
       inkscape:vp_x="0 : 0.5 : 1"
       sodipodi:type="inkscape:persp3d" />
    <inkscape:perspective
       id="perspective2906"
       inkscape:persp3d-origin="0.5 : 0.33333333 : 1"
       inkscape:vp_z="1 : 0.5 : 1"
       inkscape:vp_y="0 : 1000 : 0"
       inkscape:vp_x="0 : 0.5 : 1"
       sodipodi:type="inkscape:persp3d" />
  </defs>
  <sodipodi:namedview
     id="base"
     pagecolor="#ffffff"
     bordercolor="#666666"
     borderopacity="1.0"
     inkscape:pageopacity="0.0"
     inkscape:pageshadow="2"
     inkscape:zoom="0.76957904"
     inkscape:cx="281.84693"
     inkscape:cy="384.09447"
     inkscape:document-units="px"
     inkscape:current-layer="layer1"
     showgrid="false"
     inkscape:window-width="2046"
     inkscape:window-height="1381"
     inkscape:window-x="467"
     inkscape:window-y="0"
     inkscape:window-maximized="0" />
  <metadata
     id="metadata7">
    <rdf:RDF>
      <cc:Work
         rdf:about="">
        <dc:format>image/svg+xml</dc:format>
        <dc:type
           rdf:resource="http://purl.org/dc/dcmitype/StillImage" />
        <dc:title></dc:title>
      </cc:Work>
    </rdf:RDF>
  </metadata>
  <g
     inkscape:label="Layer 1"
     inkscape:groupmode="layer"
     id="layer1">
    <path
       sodipodi:type="arc"
       style="opacity:0.7;fill:#2c89a0;fill-opacity:1;fill-rule:nonzero;stroke:none"
       id="path3684"
       sodipodi:cx="368.38321"
       sodipodi:cy="496.21399"
       sodipodi:rx="302.11322"
       sodipodi:ry="313.1582"
       d="m 670.49643,496.21399 a 302.11322,313.1582 0 1 1 -604.226441,0 302.11322,313.1582 0 1 1 604.226441,0 z"
       transform="matrix(0.8344086,0,0,0.79875518,10.97374,36.839029)" />
    <path
       style="fill:#1bb8ed;fill-opacity:1;stroke:none;stroke-width:0.53755397000000005px;stroke-linecap:butt;stroke-linejoin:miter;stroke-opacity:1"
       d="m 704.60593,111.16418 -3.49674,3.64458 -2.98953,2.49128 -4.33093,0.37891 -5.11465,5.05004 -1.35479,3.73143 -4.32524,6.30451 -6.38526,7.42672 -2.16861,2.06176 c -2.09815,0.98817 -1.23812,0.58968 -3.20237,1.83025 l -2.85416,0.63127 -2.94458,3.82282 -2.65301,1.56757 -4.3342,0.0692 -1.86948,-0.5161 -1.963,1.68605 -1.51052,2.08766 -0.70084,1.80218 -0.70616,1.46878 -8.7679,10.44918 -1.51643,0.65731 -1.54542,0.32599 -0.794,0.73719 -1.10242,0.34685 -1.51968,0.34758 -1.01544,1.34084 -0.38637,1.03539 -0.37941,1.52367 -2.10929,2.33082 -10.46608,-5.6901 -0.2581,-0.63322 0.62347,-1.18731 0.81414,-1.59746 1.15433,-0.43486 4.75609,-3.96939 0.87259,-2.97381 -0.3331,-1.35401 -0.9835,1.43343 -0.748,-0.78114 -0.31874,-0.50869 1.23436,-1.83694 -3.51397,-2.68543 -0.31888,-1.73681 -1.07815,-0.46609 -0.17766,1.64909 -2.134,3.27496 0.76086,0.79194 -0.30546,1.27872 -1.75574,-0.44258 -1.16794,0.007 -0.92329,1.44009 -0.8671,2.62754 -1.38392,2.17196 -1.61759,0.0461 -0.99578,0.61177 -0.44626,1.57721 -2.82638,2.58432 -1.63122,1.52587 -2.30657,-1.01442 -1.42532,1.69863 -0.63029,1.92718 -0.92537,1.41642 1.52954,3.71755 -1.08128,2.36011 -1.67544,0.61161 -0.60853,1.22177 0.93392,1.13451 -21.01419,24.20746 -3.06229,1.11451 -2.71262,0.75004 -0.88839,1.29395 -0.0761,2.12908 -10.79746,12.73724 -0.82329,-0.14259 -0.96559,1.22915 0.23724,1.07623 -8.91404,10.41427 -0.47034,-2.10512 -2.37519,-2.34388 -8.67587,-5.26246 -1.2638,1.63682 -68.96525,-43.59297 8.98386,-10.70654 2.01519,-1.2256 2.77237,-0.61219 3.21097,-3.09493 1.17548,-0.32939 1.04695,-1.11704 0.40783,-2.28927 -0.25688,-4.16276 0.86297,-2.67488 c 0,0 4.23572,-4.85397 5.64563,-15.74439 1.23496,-9.53945 -3.71722,-18.22818 -3.71722,-18.22818 l 2.23059,-2.5799 c 0,0 1.72488,-2.63424 1.9741,-3.05826 0.15813,-0.36123 8.23711,-8.86655 8.06425,-9.08793 -0.34472,-0.15208 -0.36549,-0.5289 -0.78291,-0.635 -0.27383,0.0217 -8.08575,8.51356 -8.57234,8.59581 -0.27284,0.36546 -2.61195,1.72144 -2.74856,1.83825 l -2.77402,2.36512 c -0.18639,0.15944 -7.52701,-5.34707 -17.41955,-4.48556 -13.38121,1.16533 -17.88072,5.91654 -17.88072,5.91654 l -2.63226,-2.01138 -6.32888,6.02671 -1.73682,0.31888 -1.29826,1.65175 -9.33131,10.41501 -1.7482,-0.76519 -1.56476,-2.21208 -27.44391,-0.90184 -4.09322,-2.49167 -1.02032,0.87623 0.63483,1.80457 -14.10395,14.19505 -1.609,-1.21854 -2.14213,2.50062 1.04722,1.33923 -13.04813,12.36181 c -92.24882,-17.30542 -190.89454,14.32466 -255.52306,91.34594 -95.352616,113.63682 -80.531022,283.04871 33.10582,378.40128 113.63675,95.3527 283.04867,80.53101 378.40128,-33.10581 61.93435,-73.81048 77.38001,-171.14729 49.46432,-256.44333 2.58606,-5.77295 4.68205,-8.76818 4.68205,-8.76818 l 15.5956,-20.85976 4.80848,-6.0964 1.56867,-4.01246 -1.68338,-2.75019 -3.1399,-2.63469 -1.55232,-3.97788 25.7761,-31.79025 2.57564,-0.95268 1.4311,-1.49644 1.12553,-5.26146 23.28058,-27.1959 7.12255,-1.58897 1.97601,-2.35492 0.27977,-5.11591 6.57593,-7.83689 1.43761,-2.78476 1.88636,-0.65392 1.79067,-1.61136 1.06766,-0.88038 -2.27772,-1.91123 0.13107,-1.22769 -2.34206,-1.96522 -4.28953,0.85224 -2.39634,-2.44934 0.0677,-7.26748 0.58962,-1.98324 1.13676,-3.49772 1.31734,-1.56995 4.168,-4.96722 2.70227,-2.77617 1.90087,-2.39606 -0.95593,-2.88538 5.48533,-6.53717 c 0.14838,-0.47047 -0.80014,-5.40223 -1.19846,-8.11062 l 3.29336,-3.92487 6.61734,-7.36355 3.75589,-3.95342 8.82218,-9.96505 3.67467,-2.83741 1.152,-2.91479 0.96427,-2.74336 1.06234,-1.21377 0.84033,-1.70708 3.05979,-2.91477 -1.14276,-2.97634 -2.52546,-2.42612 0.37278,-3.37127 -0.82565,-0.71474 z M 473.48394,246.31775 C 575.71761,332.10199 589.05285,484.52454 503.26862,586.75822 417.48437,688.9919 265.0618,702.32716 162.82813,616.54293 60.594494,530.75865 47.259191,378.33609 133.04347,276.10243 218.82771,173.86876 371.25026,160.53352 473.48394,246.31775 z m 4.99389,65.39412 c 0,0 -22.50991,42.8386 -49.05323,54.8006 -33.67403,13.91662 -71.18164,14.53128 -145.00071,6.72404 -43.16109,-3.20451 -68.10991,4.14326 -84.03421,23.62797 -31.18282,38.15474 -28.73158,77.98033 -18.79472,153.56482 2.17841,-37.45167 5.04428,-65.37969 16.37668,-93.84184 13.86744,-29.2718 35.99407,-44.67078 61.97274,-47.64391 92.58739,-6.95564 184.92048,12.79908 218.53345,-97.23168 z m -44.42591,163.56962 c -42.13537,-17.36337 -73.80043,-31.98409 -114.43176,-35.42993 -46.55371,-4.02066 -75.36594,27.81537 -80.80379,64.23187 -6.38193,44.56877 15.18921,77.33091 -48.87343,87.38442 39.99135,-0.93428 84.64488,-6.87083 83.75037,-49.63267 -0.67494,-21.43251 -0.97238,-38.41587 13.4023,-57.78652 20.05163,-25.01939 50.16512,-26.89037 80.42541,-23.71764 22.53749,3.1343 44.50473,9.43416 66.5309,14.95047 z"
       id="path2892" />
    <text
       xml:space="preserve"
       style="font-size:40px;font-style:normal;font-weight:normal;fill:#000000;fill-opacity:1;stroke:none;font-family:Bitstream Vera Sans"
       x="53.275879"
       y="798.97693"
       id="text3686"><tspan
         sodipodi:role="line"
         id="tspan3688"
         x="53.275879"
         y="798.97693">original rotated by 40°</tspan><tspan
         sodipodi:role="line"
         x="53.275879"
         y="848.97693"
         id="tspan3690">color 1: 1BB8EDF</tspan><tspan
         sodipodi:role="line"
         x="53.275879"
         y="898.97693"
         id="tspan3692">color 2: 2C89A0  </tspan></text>
  </g>
</svg>

<?xml version="1.0" encoding="UTF-8" standalone="no"?>
<!-- Created with Inkscape (http://www.inkscape.org/) -->

<svg
   xmlns:dc="http://purl.org/dc/elements/1.1/"
   xmlns:cc="http://creativecommons.org/ns#"
   xmlns:rdf="http://www.w3.org/1999/02/22-rdf-syntax-ns#"
   xmlns:svg="http://www.w3.org/2000/svg"
   xmlns="http://www.w3.org/2000/svg"
   xmlns:sodipodi="http://sodipodi.sourceforge.net/DTD/sodipodi-0.dtd"
   xmlns:inkscape="http://www.inkscape.org/namespaces/inkscape"
   width="744.09448819"
   height="1052.3622047"
   id="svg2"
   version="1.1"
   inkscape:version="0.47 r22583"
   sodipodi:docname="logo.svg">
  <defs
     id="defs4">
    <inkscape:perspective
       sodipodi:type="inkscape:persp3d"
       inkscape:vp_x="0 : 526.18109 : 1"
       inkscape:vp_y="0 : 1000 : 0"
       inkscape:vp_z="744.09448 : 526.18109 : 1"
       inkscape:persp3d-origin="372.04724 : 350.78739 : 1"
       id="perspective10" />
    <inkscape:perspective
       id="perspective2884"
       inkscape:persp3d-origin="0.5 : 0.33333333 : 1"
       inkscape:vp_z="1 : 0.5 : 1"
       inkscape:vp_y="0 : 1000 : 0"
       inkscape:vp_x="0 : 0.5 : 1"
       sodipodi:type="inkscape:persp3d" />
    <inkscape:perspective
       id="perspective2983"
       inkscape:persp3d-origin="0.5 : 0.33333333 : 1"
       inkscape:vp_z="1 : 0.5 : 1"
       inkscape:vp_y="0 : 1000 : 0"
       inkscape:vp_x="0 : 0.5 : 1"
       sodipodi:type="inkscape:persp3d" />
    <inkscape:perspective
       id="perspective3788"
       inkscape:persp3d-origin="0.5 : 0.33333333 : 1"
       inkscape:vp_z="1 : 0.5 : 1"
       inkscape:vp_y="0 : 1000 : 0"
       inkscape:vp_x="0 : 0.5 : 1"
       sodipodi:type="inkscape:persp3d" />
    <inkscape:perspective
       id="perspective3864"
       inkscape:persp3d-origin="0.5 : 0.33333333 : 1"
       inkscape:vp_z="1 : 0.5 : 1"
       inkscape:vp_y="0 : 1000 : 0"
       inkscape:vp_x="0 : 0.5 : 1"
       sodipodi:type="inkscape:persp3d" />
    <inkscape:perspective
       id="perspective2906"
       inkscape:persp3d-origin="0.5 : 0.33333333 : 1"
       inkscape:vp_z="1 : 0.5 : 1"
       inkscape:vp_y="0 : 1000 : 0"
       inkscape:vp_x="0 : 0.5 : 1"
       sodipodi:type="inkscape:persp3d" />
  </defs>
  <sodipodi:namedview
     id="base"
     pagecolor="#ffffff"
     bordercolor="#666666"
     borderopacity="1.0"
     inkscape:pageopacity="0.0"
     inkscape:pageshadow="2"
     inkscape:zoom="0.76957904"
     inkscape:cx="156.75616"
     inkscape:cy="572.67595"
     inkscape:document-units="px"
     inkscape:current-layer="layer1"
     showgrid="false"
     inkscape:window-width="2046"
     inkscape:window-height="1381"
     inkscape:window-x="467"
     inkscape:window-y="0"
     inkscape:window-maximized="0" />
  <metadata
     id="metadata7">
    <rdf:RDF>
      <cc:Work
         rdf:about="">
        <dc:format>image/svg+xml</dc:format>
        <dc:type
           rdf:resource="http://purl.org/dc/dcmitype/StillImage" />
        <dc:title />
      </cc:Work>
    </rdf:RDF>
  </metadata>
  <g
     inkscape:label="Layer 1"
     inkscape:groupmode="layer"
     id="layer1">
    <text
       xml:space="preserve"
       style="font-size:40px;font-style:normal;font-weight:normal;fill:#000000;fill-opacity:1;stroke:none;font-family:Bitstream Vera Sans"
       x="53.275879"
       y="798.97693"
       id="text3686"><tspan
         sodipodi:role="line"
         id="tspan3688"
         x="53.275879"
         y="798.97693">original rotated by 40°</tspan><tspan
         sodipodi:role="line"
         x="53.275879"
         y="848.97693"
         id="tspan3690">color 1: 1BB8EDF</tspan><tspan
         sodipodi:role="line"
         x="53.275879"
         y="898.97693"
         id="tspan3692">color 2: 2C89A0  </tspan></text>
    <path
       sodipodi:type="arc"
       style="opacity:0.69999999999999996;fill:#2c89a0;fill-opacity:1;fill-rule:nonzero;stroke:none"
       id="path3606"
       sodipodi:cx="365.78439"
       sodipodi:cy="447.48605"
       sodipodi:rx="247.53793"
       sodipodi:ry="247.53793"
       d="m 613.32233,447.48605 a 247.53793,247.53793 0 1 1 -495.07587,0 247.53793,247.53793 0 1 1 495.07587,0 z"
       transform="translate(-45.479409,-16.892352)" />
    <path
       style="fill:#1bb8ed;fill-opacity:1;stroke:none;stroke-width:0.53755397000000005px;stroke-linecap:butt;stroke-linejoin:miter;stroke-opacity:1"
       d="M 704.59375 111.15625 L 701.09375 114.8125 L 698.125 117.3125 L 693.78125 117.6875 L 688.6875 122.71875 L 687.3125 126.46875 L 683 132.75 L 676.59375 140.1875 L 674.4375 142.25 C 672.33935 143.23817 673.21425 142.85318 671.25 144.09375 L 668.375 144.71875 L 665.4375 148.53125 L 662.78125 150.09375 L 658.4375 150.1875 L 656.59375 149.65625 L 654.625 151.34375 L 653.09375 153.4375 L 652.40625 155.21875 L 651.6875 156.6875 L 642.9375 167.15625 L 641.40625 167.8125 L 639.875 168.125 L 639.0625 168.875 L 637.96875 169.21875 L 636.46875 169.5625 L 635.4375 170.90625 L 635.0625 171.9375 L 634.6875 173.46875 L 632.5625 175.8125 L 622.09375 170.09375 L 621.84375 169.46875 L 622.46875 168.28125 L 623.28125 166.6875 L 624.4375 166.25 L 629.1875 162.28125 L 630.0625 159.3125 L 629.71875 157.96875 L 628.75 159.40625 L 628 158.625 L 627.6875 158.09375 L 628.90625 156.25 L 625.40625 153.59375 L 625.09375 151.84375 L 624 151.375 L 623.8125 153.03125 L 621.6875 156.3125 L 622.4375 157.09375 L 622.15625 158.375 L 620.375 157.9375 L 619.21875 157.9375 L 618.3125 159.375 L 617.4375 162 L 616.0625 164.1875 L 614.4375 164.21875 L 613.4375 164.84375 L 613 166.40625 L 610.15625 169 L 608.53125 170.53125 L 606.21875 169.5 L 604.8125 171.21875 L 604.15625 173.125 L 603.25 174.5625 L 604.78125 178.25 L 603.6875 180.625 L 602.03125 181.25 L 601.40625 182.46875 L 602.34375 183.59375 L 581.3125 207.8125 L 578.25 208.90625 L 575.5625 209.65625 L 574.65625 210.96875 L 574.59375 213.09375 L 563.78125 225.8125 L 562.96875 225.6875 L 562 226.90625 L 562.25 228 L 553.3125 238.40625 L 552.84375 236.3125 L 550.46875 233.96875 L 541.8125 228.6875 L 540.53125 230.34375 L 471.5625 186.75 L 480.5625 176.03125 L 482.5625 174.8125 L 485.34375 174.1875 L 488.5625 171.09375 L 489.71875 170.78125 L 490.78125 169.65625 L 491.1875 167.375 L 490.9375 163.1875 L 491.78125 160.53125 C 491.78125 160.53125 496.02759 155.67167 497.4375 144.78125 C 498.67246 135.2418 493.71875 126.5625 493.71875 126.5625 L 495.9375 123.96875 C 495.9375 123.96875 497.68828 121.33027 497.9375 120.90625 C 498.09563 120.54502 506.17286 112.03388 506 111.8125 C 505.65528 111.66042 505.63617 111.2936 505.21875 111.1875 C 504.94492 111.2092 497.11159 119.699 496.625 119.78125 C 496.35216 120.14671 494.01161 121.50819 493.875 121.625 L 491.125 124 C 490.93861 124.15944 483.58004 118.63849 473.6875 119.5 C 460.30629 120.66533 455.8125 125.40625 455.8125 125.40625 L 453.1875 123.40625 L 446.84375 129.4375 L 445.125 129.75 L 443.8125 131.40625 L 434.5 141.8125 L 432.75 141.0625 L 431.15625 138.84375 L 403.71875 137.9375 L 399.625 135.4375 L 398.625 136.3125 L 399.25 138.125 L 385.15625 152.3125 L 383.53125 151.09375 L 381.40625 153.59375 L 382.4375 154.9375 L 369.40625 167.3125 C 277.15743 150.00708 178.50352 181.63497 113.875 258.65625 C 18.522384 372.29307 33.331908 541.70993 146.96875 637.0625 C 260.6055 732.4152 430.02239 717.57432 525.375 603.9375 C 587.30935 530.12702 602.75944 432.79604 574.84375 347.5 C 577.42981 341.72705 579.53125 338.75 579.53125 338.75 L 595.125 317.875 L 599.9375 311.78125 L 601.5 307.78125 L 599.8125 305.03125 L 596.6875 302.375 L 595.125 298.40625 L 620.90625 266.625 L 623.46875 265.65625 L 624.90625 264.15625 L 626.03125 258.90625 L 649.3125 231.71875 L 656.4375 230.125 L 658.40625 227.78125 L 658.6875 222.65625 L 665.25 214.8125 L 666.6875 212.03125 L 668.59375 211.375 L 670.375 209.75 L 671.4375 208.875 L 669.15625 206.96875 L 669.3125 205.75 L 666.96875 203.78125 L 662.65625 204.625 L 660.28125 202.1875 L 660.34375 194.90625 L 660.9375 192.9375 L 662.0625 189.4375 L 663.375 187.875 L 667.5625 182.90625 L 670.25 180.125 L 672.15625 177.71875 L 671.1875 174.84375 L 676.6875 168.3125 C 676.83588 167.84203 675.89832 162.89589 675.5 160.1875 L 678.78125 156.28125 L 685.40625 148.90625 L 689.15625 144.9375 L 697.96875 134.96875 L 701.65625 132.15625 L 702.8125 129.21875 L 703.75 126.5 L 704.8125 125.28125 L 705.65625 123.5625 L 708.71875 120.65625 L 707.59375 117.6875 L 705.0625 115.25 L 705.4375 111.875 L 704.59375 111.15625 z M 320.28125 189.78125 C 374.43828 190.22359 428.74151 208.7819 473.46875 246.3125 C 575.70242 332.09674 589.06548 484.51632 503.28125 586.75 C 417.497 688.98368 265.07742 702.31548 162.84375 616.53125 C 60.610114 530.74697 47.246971 378.32741 133.03125 276.09375 C 181.28489 218.58731 250.65079 189.21253 320.28125 189.78125 z M 353.0625 246.875 C 353.0625 246.875 363.36309 294.14986 350.71875 320.375 C 333.86838 352.681 305.53584 377.28071 243.96875 418.75 C 208.84562 444.03862 194.42419 465.71291 194.75 490.875 C 195.38797 540.14716 222.86565 569.07996 279.0625 620.59375 C 256.65779 590.50385 240.92649 567.24385 231.3125 538.15625 C 223.12002 506.81893 230.13527 480.82007 248.125 461.84375 C 314.58005 397.00139 398.03988 352.76945 353.0625 246.875 z M 424.15625 400.71875 C 380.71772 414.50173 347.0591 423.64735 313.71875 447.125 C 311.32833 448.80277 309.07679 450.57847 306.96875 452.375 C 275.34834 479.32286 275.0852 518.88247 293.125 548.3125 C 316.88441 586.55639 354.45631 597.77614 311.84375 646.65625 C 341.87836 620.23461 372.26576 586.99499 344.09375 554.8125 C 329.80016 538.82809 318.65832 526.01614 317.21875 501.9375 C 316.49704 469.88259 338.37363 449.08299 363.59375 432.0625 C 382.87316 419.97669 403.7374 410.65116 424.15625 400.71875 z "
       id="path2829" />
  </g>
</svg>
